X:6004
T:Fiery Clock Face
T:Coal-hole, The
R:Jig
C:Trad. Song, 1888
O:England; Newcastle
Z:Paul Hardy's Session Tunebook 2022 (see www.paulhardy.net). Creative Commons cc by-nc-sa licenced.
M:6/8
L:1/8
Q:3/8=130
K:D
A|"D"d2 d D2 E|F2 G A2 B|"C"=c2 c E2 F|G2 A "A7"B2 c|"D"d2 d D2 E|F2 G A2 A|"G"Bcd "A7"e2 c|"D"d3 d2:|
|:d/e/|"D"f2 f def|"G"g2 f e2 d|"A"c2 B A2 B|"A7"c2 d e2 =f|"D"f2 f def|"Em"g2 f e2 d|"A7"cBA B2 c|"D"d3 d2:|
K:G
|:D|"G"G2 G G,2 A,|B,2 C D2 E|"F"=F2 F A,2 B,|C2 D "D7"E2 F|"G"G2 G G,2 A,|B,2 C D2 D|"C"EFG "D7"A2 F|"G"G3 G2:|
|:G/A/|"G"B2 B GAB|"C"c2 B A2 G|"D"F2 E D2 E|"D7"F2 G A2 _B|"G"B2 B GAB|"Am"c2 B A2 G|"D7"FED E2 F|"G"G3 G2:|

